!!!SOCIAL_FUNCTION:	songs of the drum-presentation ceremony
!!!REG: Great Lakes
!!!PDT:	1913
!!!OTL: No_55_Song_of_the_Chief.krn
**kern	**kern
*staff2	*staff1
=1-	=1-
*clefF4	*clefF4
*k[]	*k[]
*M5/4	*M5/4
8GG/L	2d\
8GG/	.
8GG/	.
8GG/	.
8GG/	4c\
8GG/J	.
8GG/L	8.A\L
8GG/	.
.	16A\Jk
8GG/	4A\
8GG/J	.
=2	=2
1r	2d\
.	4c\
.	8.A\L
.	16A\Jk
4r	4A\
=3	=3
1r	8c\L
.	8d\J
.	4c\
.	16A\LK
.	8.A\J
.	16A\LL
.	16E\J
.	8E\J
4r	4D\
=4	=4
1r	8.C/L
.	16AA/Jk
.	4C/
.	8.D\L
.	16D\Jk
.	8D/L
.	8D/
4r	16C/K
.	8.C/J
=5	=5
1r	8AA/L
.	8AA/J
.	[4AA/
.	2.AA/]
4r	.
=6	=6
1r	2c\
.	16A\LK
.	8.A\J
.	16A\LL
.	16E\J
.	8E\J
4r	4D\
=7	=7
1r	8.C/L
.	16AA/Jk
.	4C/
.	8.D\L
.	16D\Jk
.	8D/L
.	8D/
4r	16C/K
.	8.C/J
=8	=8
1r	8AA/L
.	8AA/J
.	4AA/
.	2.AA/
4r	.
==	==
*-	*-
